X: 1
T: Gan Ainm
M: 4/4
L: 1/8
R: reel
K: Dmaj
|:a^gab afdf|afbf afdf|gfga gece|geae g2 eg|
a^gab afdf|afbf afdf|gfeg fedf|edce (3ddd d2:|
|:(3ddd fd edfd|(3BBB gB fBeB|cdef gfed|(3cBA eA fAeA|
(3ddd fd edfd|(3BBB gB fBeB|cdef gfed|(3cBA Bc (3ddd d2:|
